X:211
T:Sprt
R:jig
C:Peadar O Riada
N:originally in Bflat
D:The Nervous Man
Z:transcribed by Dave Marshall
M:6/8
K:D
|: AdF ~A3 | GBE GFG | AdF ~A3 | GBE cde | 
AdF ~A3 | GBE GFG | cdc ~A2G |1 EAA D2F :|2 EAA D2d |
|: ~c3 d (3fed | cec A2g | fed ged | (3cde c Age |
~f3 ~g3 | age d2e | fdF A2F |1 GEA D2d :|2 GEA D3 |
|: AGG AGE | AGE EDD | AGE cde | dcA ~G3 |
AGG AGE | AGE EDD | cdc A2G | EAA D3 :|
